assets/icon/general.svg

<?xml version="1.0" encoding="UTF-8"?>
<svg width="84px" height="64px" viewBox="0 0 84 64" version="1.1" xmlns="http://www.w3.org/2000/svg" xmlns:xlink="http://www.w3.org/1999/xlink">
    <!-- Generator: Sketch 44 (41411) - http://www.bohemiancoding.com/sketch -->
    <title>Page 1</title>
    <desc>Created with Sketch.</desc>
    <defs></defs>
    <g id="Inspection" stroke="none" stroke-width="1" fill="none" fill-rule="evenodd">
        <g id="NewInspectionRoomSelection" transform="translate(-387.000000, -704.000000)">
            <g id="Page-1" transform="translate(387.000000, 704.000000)">
                <polygon id="Path-2" fill-opacity="0.3" fill="#7673AD" points="34.3007812 62.4082031 33.6933594 39.4472656 49.8710938 39.8769531 50.859375 61.4550781 69.5976562 61.5546875 70.1015625 35.0800781 79.0175781 34.7773438 42.7148438 2.05078125 32.2460938 12.1054688 32.296875 8.5 22.8183594 9.61132812 22.7675781 18.2910156 5.38085938 34.53125 15.0859375 35.328125 15.4238281 61.0585938"></polygon>
                <path d="M41.6682,-0.0001 L39.5002,1.9179 L33.3362,7.3319 L33.3362,7.1639 L20.3352,7.1639 L20.3352,18.8329 L6.5002,31.1639 L0.0002,36.9139 L12.5822,36.9139 L12.5822,63.6639 L70.7502,63.6639 L70.7502,36.9139 L83.3352,36.9139 L76.8362,31.1639 L43.8362,1.9139 L41.6682,-0.0001 Z M41.6682,4.4149 L74.6672,33.6649 L67.4182,33.6649 L67.4182,33.5829 L67.4182,60.3319 L51.5862,60.3319 L51.5862,38.0079 L31.7502,38.0079 L31.7502,60.3319 L15.9182,60.3319 L15.9182,33.5829 L8.7502,33.5829 L23.7502,20.3319 L23.7502,10.4999 L30.1682,10.4999 L30.1682,14.7499 L41.6682,4.4149 Z M35.0002,60.3329 L48.3362,60.3329 L48.3362,41.2579 L35.0002,41.2579 L35.0002,60.3329 Z" id="Fill-2" fill="#AAAAAA"></path>
                <path d="M47.4507,51.587 C47.4507,52.839 46.4367,53.853 45.1847,53.853 C43.9337,53.853 42.9187,52.839 42.9187,51.587 C42.9187,50.336 43.9337,49.321 45.1847,49.321 C46.4367,49.321 47.4507,50.336 47.4507,51.587" id="Fill-3" fill="#FEFEFE"></path>
            </g>
        </g>
    </g>
</svg>

<?xml version="1.0" encoding="utf-8"?>
<!-- Generator: Adobe Illustrator 16.0.4, SVG Export Plug-In . SVG Version: 6.00 Build 0)  -->
<!DOCTYPE svg PUBLIC "-//W3C//DTD SVG 1.1//EN" "http://www.w3.org/Graphics/SVG/1.1/DTD/svg11.dtd">
<svg version="1.1" id="Layer_1" xmlns="http://www.w3.org/2000/svg" xmlns:xlink="http://www.w3.org/1999/xlink" x="0px" y="0px"
	 width="84px" height="64px" viewBox="0 0 84 64" enable-background="new 0 0 84 64" xml:space="preserve">
<title>Page 1</title>
<desc>Created with Sketch.</desc>
<path id="Fill-2" fill="#35306C" d="M41.668,0L39.5,1.918l-6.164,5.414V7.164H20.335v11.669L6.5,31.164L0,36.914h12.582v26.75H70.75
	v-26.75h12.585l-6.499-5.75l-33-29.25L41.668,0z M41.668,4.415l32.999,29.25h-7.249v-0.082v26.749H51.586V38.008H31.75v22.324
	H15.918V33.583H8.75l15-13.251V10.5h6.418v4.25L41.668,4.415z M48.625,60.125H34.75v-19.5h13.875V60.125z"/>
<path id="Fill-3" fill="#35306C" d="M47.451,49.837c0,1.252-1.016,2.267-2.268,2.267c-1.25,0-2.266-1.015-2.266-2.267
	c0-1.251,1.016-2.267,2.266-2.267C46.438,47.57,47.451,48.586,47.451,49.837"/>
</svg>
